X:1
T:Title
%%score 1 { 2 | 3 }
L:1/8
Q:1/4=90
M:6/8
K:F
V:1 treble nm="Grand Piano, Soprano"
V:2 bass nm="Choir Pad, Jesus Will Help You"
V:3 bass 
V:1
 [Fc][Fc]>[Fc] [Fc][Fd][Fc] | [FA][EG]F- F3/2 z/ z | z [FA]>[FG] F[Fc][EB] | %3
w: By~Robert~Lowry * * * * *|||
 [FA] [EG]2- [EG]2- [EG]/ z/ | [Ec][Fc]>[Fc] [Fc][Fd][Fc] | [FA][EG]F- F3/2 z/ z | %6
w: |||
 z [FA]>[FG] F[Ec]>[EG] | [EA] F2- F3- | F[Fd]>[Fd] [Fd][FB][Fd]- | [Fd][Fc]>[Fc] [Fc][FA][Ac]- | %10
w: ||||
 [Ac][GB]>[GB] [GB][FA][CG] | [DF] [Ec]2- [Ec]2- [Ec]/ z/ | [Gc][Fc]>[Fc] [Fc][Fd][Fc] | %13
w: |||
 [FA][EG][DF] [EG][FA][Ac]- | [Ac][FA]>[FG] F[Ec]>[EG] | [EA] F2- F3- | F3 z3 |] %17
w: ||||
V:2
 A,A,>A, A,B,A, | CB,A,- A,3/2 z/ z | z C>B, A,[K:treble]CC | C C2- C2- C/ z/ | B,A,>A, A,B,A, | %5
 CB,A,- A,3/2 z/ z | z C>B, A,G,>B, | C A,2- A,3- | A,B,>B, B,DB,- | B,A,>A, A,[K:treble]CC- | %10
 CC>C CCC | =B, C2- C2- C/ z/ | B,A,>A, A,B,A, | CCC CCF- | FC>[K:bass]B, A,G,>B, | C A,2- A,3- | %16
 A,3 z3 |] %17
V:3
 F,F,>F, F,F,F, | F,C,F,- F,3/2 z/ z | z F,>F, F,A,G, | F, C,2- C,2- C,/ z/ | C, F,2 F,F,F, | %5
 F,C,F,- F,3/2 z/ z | z F,>F, F,C,>C, | C, F,2- F,3- | F,B,,>B,, B,,B,,B,,- | B,,F,>F, F,F,F,- | %10
 F,E,>E, E,F,E, | D, C,2- C,2- C,/ z/ | E,F,>F, F,F,F, | F,C,C, C,F,F,- | F,F,>F, F,C,>C, | %15
 C, F,2- F,3- | F,3 z3 |] %17

